X: 1
T: A Leap O'er the Glade
T: Naid Tros Lannerch
R: reel
O: Wales
Z: 1997 by John Chambers <jc@trillian.mit.edu>
M: C|
L: 1/8
K: A
|: "A"A2AB "E7"cdeE | "A"A2AB "E7"AEFG |1 "A"ABcA "D"fedc | "Bm"BcBA "E7"GFGE \
                                      :|2 "A"ABcA "Bm"BcdB | "E7"cAAG "A"A4 :|
|: "A"a2ae "D"fedf | "E7"efed "A"c2cB |1 "A"ABce "D"fedc | "Bm"BcBA "E7"GFGE \
                                      :|2"A"ABcA "Bm"BcdB | "E7"cAAG "A"A4 :|
|: "E7"E2EF GABc | dBcA GABG |1 "A"ABce "D"fedc | "Bm"BcBA "E7"GFGE \
                            :|2 "A"ABcA "Bm"BcdB | "E7"cAAG "A"A4 :|
